src/assets/filled/SendSqaure2.svg

<?xml version="1.0" encoding="UTF-8"?>
<svg width="24" height="24" viewBox="0 0 24 24" xmlns="http://www.w3.org/2000/svg">
 <path d="m16.19 2h-8.38c-3.64 0-5.81 2.17-5.81 5.81v8.37c0 3.65 2.17 5.82 5.81 5.82h8.37c3.64 0 5.81-2.17 5.81-5.81v-8.38c0.01-3.64-2.16-5.81-5.8-5.81zm-7.55 10.81 4.38-4.38h-2.43c-0.41 0-0.75-0.34-0.75-0.75s0.34-0.75 0.75-0.75h4.24c0.1 0 0.19 0.02 0.29 0.06 0.18 0.08 0.33 0.22 0.41 0.41 0.04 0.09 0.06 0.19 0.06 0.29v4.24c0 0.41-0.34 0.75-0.75 0.75s-0.75-0.34-0.75-0.75v-2.43l-4.39 4.37c-0.15 0.15-0.34 0.22-0.53 0.22s-0.38-0.07-0.53-0.22c-0.29-0.29-0.29-0.77 0-1.06zm9.6 4.41c-2.01 0.67-4.12 1.01-6.24 1.01s-4.23-0.34-6.24-1.01c-0.39-0.13-0.6-0.56-0.47-0.95s0.55-0.61 0.95-0.47c3.72 1.24 7.81 1.24 11.53 0 0.39-0.13 0.82 0.08 0.95 0.47 0.12 0.4-0.09 0.82-0.48 0.95z"/>
</svg>

<svg width="24" height="24" viewBox="0 0 24 24"  xmlns="http://www.w3.org/2000/svg">
<path d="M16.19 2H7.81C4.17 2 2 4.17 2 7.81V16.18C2 19.83 4.17 22 7.81 22H16.18C19.82 22 21.99 19.83 21.99 16.19V7.81C22 4.17 19.83 2 16.19 2ZM8.64 12.81L13.02 8.43H10.59C10.18 8.43 9.84 8.09 9.84 7.68C9.84 7.27 10.18 6.93 10.59 6.93H14.83C14.93 6.93 15.02 6.95 15.12 6.99C15.3 7.07 15.45 7.21 15.53 7.4C15.57 7.49 15.59 7.59 15.59 7.69V11.93C15.59 12.34 15.25 12.68 14.84 12.68C14.43 12.68 14.09 12.34 14.09 11.93V9.5L9.7 13.87C9.55 14.02 9.36 14.09 9.17 14.09C8.98 14.09 8.79 14.02 8.64 13.87C8.35 13.58 8.35 13.1 8.64 12.81ZM18.24 17.22C16.23 17.89 14.12 18.23 12 18.23C9.88 18.23 7.77 17.89 5.76 17.22C5.37 17.09 5.16 16.66 5.29 16.27C5.42 15.88 5.84 15.66 6.24 15.8C9.96 17.04 14.05 17.04 17.77 15.8C18.16 15.67 18.59 15.88 18.72 16.27C18.84 16.67 18.63 17.09 18.24 17.22Z" />
</svg>
